icons/infer.svg

<?xml version="1.0" encoding="UTF-8" standalone="no"?>
<svg width="256px" height="256px" viewBox="0 0 256 256" version="1.1" xmlns="http://www.w3.org/2000/svg" xmlns:xlink="http://www.w3.org/1999/xlink" preserveAspectRatio="xMidYMid">
	<g>
		<path d="M256,128 C256,198.6925 198.6925,256 128,256 C57.3075,256 0,198.6925 0,128 C0,57.3075 57.3075,0 128,0 C198.6925,0 256,57.3075 256,128" fill="#7D29E4"></path>
		<path d="M169.888,125.664 L119.7965,125.664 L119.7965,63.2395 C119.7965,60.359 118.3835,58.0235 114.5805,58.0235 C110.968,58.0235 109.365,60.359 109.365,63.2395 L109.365,193.847 C109.365,196.7275 110.7775,199.063 114.5805,199.063 C118.1935,199.063 119.7965,196.7275 119.7965,193.847 L119.7965,136.095 L169.888,136.095 C172.7685,136.095 175.1035,134.6825 175.1035,130.8795 C175.1035,127.2665 172.7685,125.664 169.888,125.664" fill="#FFFFFF"></path>
	</g>
</svg>

<svg xmlns="http://www.w3.org/2000/svg" viewBox="0 0 256 256">
  <path fill="#7d29e4" d="M256 128c0 70.692-57.308 128-128 128C57.308 256 0 198.692 0 128 0 57.308 57.307 0 128 0c70.692 0 128 57.307 128 128"/>
  <path fill="#fff" d="M169.888 125.664h-50.092V63.239c0-2.88-1.413-5.215-5.216-5.215-3.612 0-5.215 2.335-5.215 5.215v130.608c0 2.88 1.413 5.216 5.215 5.216 3.614 0 5.217-2.335 5.217-5.216v-57.752h50.091c2.88 0 5.215-1.413 5.215-5.215 0-3.613-2.335-5.216-5.215-5.216"/>
</svg>
